src/assets/images/icons/Facebook.svg

<svg xmlns="http://www.w3.org/2000/svg" width="16" height="16" viewBox="0 0 16 16">
  <path fill="#222222" fill-rule="evenodd" d="M0.883047202,0 C0.395243055,0 0,0.395243055 0,0.883047202 L0,15.1169528 C0,15.604637 0.395243055,16 0.883047202,16 L8.54607447,16 L8.54607447,9.80398211 L6.460992,9.80398211 L6.460992,7.38924067 L8.54607447,7.38924067 L8.54607447,5.60845879 C8.54607447,3.54184058 9.80829843,2.4165399 11.6518468,2.4165399 C12.534894,2.4165399 13.2939069,2.48230384 13.5150584,2.51167879 L13.5150584,4.67139763 L12.2364684,4.67199712 C11.2338232,4.67199712 11.0397086,5.14841098 11.0397086,5.84753498 L11.0397086,7.38924067 L13.4308902,7.38924067 L13.1195156,9.80398211 L11.0397086,9.80398211 L11.0397086,16 L15.1169528,16 C15.604637,16 16,15.604637 16,15.1169528 L16,0.883047202 C16,0.395243055 15.604637,0 15.1169528,0 L0.883047202,0 Z"/>
</svg>

<svg xmlns="http://www.w3.org/2000/svg" width="16" height="16" viewBox="0 0 16 16"><path fill-rule="evenodd" d="M.883 0A.883.883 0 0 0 0 .883v14.234c0 .488.395.883.883.883h7.663V9.804H6.461V7.389h2.085V5.61c0-2.067 1.262-3.192 3.106-3.192.883 0 1.642.065 1.863.095v2.16h-1.279c-1.002 0-1.196.476-1.196 1.176V7.39h2.39l-.31 2.415h-2.08V16h4.077a.883.883 0 0 0 .883-.883V.883A.883.883 0 0 0 15.117 0H.883z"/></svg>
